src/images_karasa_jaga_svg/cmd/sc_jumptonexttablesel.svg

<svg height="16" viewBox="0 0 4.2333333 4.2333335" width="16" xmlns="http://www.w3.org/2000/svg" xmlns:xlink="http://www.w3.org/1999/xlink"><linearGradient id="a" gradientTransform="matrix(-.51583695 0 0 -1.0923589 32.018175 330.4845)" gradientUnits="userSpaceOnUse" x1="-5.580285" x2="41.94849" xlink:href="#k" y1="297.74185" y2="264.27243"/><linearGradient id="b" gradientTransform="matrix(.18247126 0 0 .4036017 .328448 -6.909548)" gradientUnits="userSpaceOnUse" x1="56" x2="60" y1="35.741943" y2="19.741945"><stop offset="0" stop-color="#1f620a"/><stop offset="1" stop-color="#3d9c10" stop-opacity=".94902"/></linearGradient><linearGradient id="c" gradientTransform="matrix(.16422414 0 0 .4036017 13.101436 1.449491)" gradientUnits="userSpaceOnUse" x1="56" x2="55.555557" xlink:href="#b" y1="35.741943" y2="27.875278"/><linearGradient id="d" gradientTransform="matrix(-.51583695 0 0 -1.0923589 20.376509 323.07617)" gradientUnits="userSpaceOnUse" x1="-5.580285" x2="41.94849" xlink:href="#k" y1="297.74185" y2="264.27243"/><linearGradient id="e" gradientTransform="matrix(.18247126 0 0 .4036017 .328448 -6.909548)" gradientUnits="userSpaceOnUse" x1="56" x2="56.200001" xlink:href="#b" y1="35.741943" y2="30.230833"/><linearGradient id="f" gradientTransform="matrix(.26458334 0 0 .26458334 -41.770028 -21.661694)" gradientUnits="userSpaceOnUse" x1="121.87097" x2="121.87097" y1="-34.455017" y2="101.92964"><stop offset="0" stop-color="#fff"/><stop offset="1" stop-color="#555"/></linearGradient><linearGradient id="g" gradientUnits="userSpaceOnUse" x1="63.999996" x2="63.999996" xlink:href="#f" y1="-39.999992" y2="104"/><linearGradient id="h" gradientUnits="userSpaceOnUse" x1="95.999992" x2="95.999992" xlink:href="#f" y1="-23.999994" y2="120"/><linearGradient id="i" gradientUnits="userSpaceOnUse" x1="17.797721" x2="17.797721" y1="31.757208" y2="-35.988848"><stop offset="0" stop-color="#5ca524"/><stop offset="1" stop-color="#58a11e" stop-opacity=".986274"/></linearGradient><linearGradient id="j" gradientTransform="matrix(2.5034278 0 0 .82828144 -138.91626 -22.853911)" gradientUnits="userSpaceOnUse" x1="46.048" x2="46.048" y1="128.01709" y2="16.6203"><stop offset="0" stop-color="#f2fdeb"/><stop offset="1" stop-color="#c8ffa5"/></linearGradient><linearGradient id="k" gradientTransform="matrix(-.51583695 0 0 -1.0923589 20.376509 586.20949)" gradientUnits="userSpaceOnUse" x1="-5.580285" x2="41.94849" y1="297.74185" y2="264.27243"><stop offset="0" stop-color="#cccdcf"/><stop offset=".11366145" stop-color="#e0e0e1"/><stop offset=".20296694" stop-color="#f2f2f2"/><stop offset=".21468808" stop-color="#fafafa"/><stop offset=".21468808" stop-color="#fff"/><stop offset=".63157898" stop-color="#fafafa"/><stop offset=".8449" stop-color="#ebecec"/><stop offset="1" stop-color="#e1e2e3"/></linearGradient><filter id="l" color-interpolation-filters="sRGB" height="1.0264" width="1.022" x="-.011" y="-.0132"><feGaussianBlur stdDeviation=".1200918"/></filter><filter id="m" color-interpolation-filters="sRGB" height="1.132" width="1.11" x="-.055" y="-.066"><feGaussianBlur stdDeviation=".600459"/></filter><filter id="n" color-interpolation-filters="sRGB" height="1.0528" width="1.044" x="-.022" y="-.0264"><feGaussianBlur stdDeviation=".2401836"/></filter><g transform="scale(.125)"><g><path d="m2.4287318 267.39798h29.0092052v29.57064h-29.0092052z" fill="#a4a4a4" filter="url(#m)" transform="matrix(-.72965325 0 0 -.86935025 35.638797 266.32916)"/><path d="m32.808332 32.80833h-19.049994v-23.28333h19.049994z" fill="#f8f8f8" opacity=".99" stroke-width=".710705"/><path d="m30.380392 31.75h-14.194115v-20.10834h14.194115z" fill="url(#a)" opacity=".99" stroke-width=".7256"/><g fill="#cacaca" transform="translate(11.641666 -255.72499)"><path d="m84 36v44h-32v4h32v20h-31.142578v4h31.142578v16h4v-16h36v-4h-36v-20h36v-4h-36v-44z" fill="url(#h)" opacity=".78" stroke-width="3.398301" transform="matrix(.26458334 0 0 .26458334 -11.641666 255.72499)"/><path d="m21.166666 270.54165v1.05833h-19.0500004v-1.05833z" stroke-width=".866025"/></g><path d="m13.758333 9.4173737h19.049999v6.4576273h-19.049999z" fill="url(#c)" stroke-width=".257451"/><path d="m12.700001 8.4666673v1.0583333l-.000001 22.2250004v1.058333 1.058333h2.116667 17.727084 1.322916v-2.116666l.000002-21.166668v-2.1166662h-2.116668l-16.933333.0000005zm2.116667 2.1166667 16.933333-.000001-.000001 21.166668h-16.933333z" fill="url(#i)" stroke-width=".264583"/><path d="m14.816668 10.583334 16.933333-.000001-.000001 21.166668h-16.933333z" fill="url(#j)" opacity=".5" stroke-width="2.116667"/></g><g><path d="m1.7325692 267.06621h30.4015288v30.2342h-30.4015288z" fill="#313131" filter="url(#n)" transform="matrix(-.67806705 0 0 -.81904917 23.399797 245.19869)"/><path d="m1.8599554 267.24631h30.1467556v29.874h-30.1467556z" fill="#949494" filter="url(#l)" transform="matrix(-.70212045 0 0 -.84543034 23.530912 252.39647)"/><path d="m2.4287318 267.39798h29.0092052v29.57064h-29.0092052z" fill="#a4a4a4" filter="url(#m)" transform="matrix(-.72965325 0 0 -.86935025 23.997131 258.92083)"/><path d="m21.166666 25.4h-19.049994v-23.28333h19.049994z" fill="#f8f8f8" opacity=".99" stroke-width=".710705"/><path d="m18.738726 24.34167h-14.1941142v-20.10834h14.1941142z" fill="url(#d)" opacity=".99" stroke-width=".7256"/><path d="m40 8v20h-32v4h32v20h-32v4h32v20h-36v4h36v16h4v-16h36v-4h-36v-20h36v-4h-36v-20h36v-4h-36v-20z" fill="url(#g)" stroke-width="3.398301" transform="scale(.26458334)"/><path d="m1.0583333 1.0583347h21.1666657v6.4576272h-21.1666657z" fill="url(#e)" stroke-width=".271377"/></g></g></svg>

<?xml version="1.0" encoding="UTF-8" standalone="no"?>
<svg
   xmlns:dc="http://purl.org/dc/elements/1.1/"
   xmlns:cc="http://creativecommons.org/ns#"
   xmlns:rdf="http://www.w3.org/1999/02/22-rdf-syntax-ns#"
   xmlns:svg="http://www.w3.org/2000/svg"
   xmlns="http://www.w3.org/2000/svg"
   xmlns:xlink="http://www.w3.org/1999/xlink"
   xmlns:sodipodi="http://sodipodi.sourceforge.net/DTD/sodipodi-0.dtd"
   xmlns:inkscape="http://www.inkscape.org/namespaces/inkscape"
   height="16"
   viewBox="0 0 4.2333333 4.2333335"
   width="16"
   version="1.1"
   id="svg78"
   sodipodi:docname="sc_jumptonexttablesel.svg"
   inkscape:version="0.92.4 (unknown)"
   inkscape:export-filename="/home/rizmut/Dokumen/Rizmut/Github/libreoffice-style-karasa-jaga/build/images_karasa_jaga/cmd/sc_jumptonexttablesel.png"
   inkscape:export-xdpi="96"
   inkscape:export-ydpi="96">
  <metadata
     id="metadata84">
    <rdf:RDF>
      <cc:Work
         rdf:about="">
        <dc:format>image/svg+xml</dc:format>
        <dc:type
           rdf:resource="http://purl.org/dc/dcmitype/StillImage" />
        <dc:title></dc:title>
      </cc:Work>
    </rdf:RDF>
  </metadata>
  <defs
     id="defs82">
    <linearGradient
       inkscape:collect="always"
       xlink:href="#a"
       id="linearGradient1024"
       gradientUnits="userSpaceOnUse"
       gradientTransform="matrix(-0.51583695,0,0,-1.0923589,32.018175,330.4845)"
       x1="-5.5802851"
       y1="297.74185"
       x2="41.94849"
       y2="264.27243" />
    <linearGradient
       gradientTransform="matrix(0.18247126,0,0,0.4036017,0.32844823,-6.9095476)"
       id="c-4"
       gradientUnits="userSpaceOnUse"
       x1="56"
       x2="60"
       y1="35.741943"
       y2="19.741945">
      <stop
         offset="0"
         stop-color="#1f620a"
         id="stop12-8" />
      <stop
         offset="1"
         stop-color="#3d9c10"
         stop-opacity=".94902"
         id="stop14-0" />
    </linearGradient>
    <linearGradient
       inkscape:collect="always"
       xlink:href="#c-4"
       id="linearGradient1059"
       gradientUnits="userSpaceOnUse"
       gradientTransform="matrix(0.16422414,0,0,0.4036017,13.101436,1.4494914)"
       x1="56"
       y1="35.741943"
       x2="55.555557"
       y2="27.875278" />
    <linearGradient
       inkscape:collect="always"
       xlink:href="#a"
       id="linearGradient1061"
       gradientUnits="userSpaceOnUse"
       gradientTransform="matrix(-0.51583695,0,0,-1.0923589,20.376509,323.07617)"
       x1="-5.5802851"
       y1="297.74185"
       x2="41.94849"
       y2="264.27243" />
    <linearGradient
       inkscape:collect="always"
       xlink:href="#c-4"
       id="linearGradient1105"
       gradientUnits="userSpaceOnUse"
       gradientTransform="matrix(0.18247126,0,0,0.4036017,0.32844823,-6.9095476)"
       x1="56"
       y1="35.741943"
       x2="56.200001"
       y2="30.230833" />
    <linearGradient
       gradientTransform="matrix(0.26458334,0,0,0.26458334,-41.770028,-21.661694)"
       id="a-2"
       gradientUnits="userSpaceOnUse"
       x1="121.87097"
       x2="121.87097"
       y1="-34.455017"
       y2="101.92964">
      <stop
         offset="0"
         stop-color="#fff"
         id="stop2-9" />
      <stop
         offset="1"
         stop-color="#555"
         id="stop4-6" />
    </linearGradient>
    <linearGradient
       inkscape:collect="always"
       xlink:href="#a-2"
       id="linearGradient1126"
       x1="63.999996"
       y1="-39.999992"
       x2="63.999996"
       y2="104"
       gradientUnits="userSpaceOnUse" />
    <linearGradient
       inkscape:collect="always"
       xlink:href="#a-2"
       id="linearGradient1135"
       x1="95.999992"
       y1="-23.999994"
       x2="95.999992"
       y2="120"
       gradientUnits="userSpaceOnUse" />
    <linearGradient
       id="e-2"
       gradientTransform="matrix(2.5034278,0,0,0.82828144,-138.91626,-22.853911)"
       gradientUnits="userSpaceOnUse"
       x1="46.048"
       x2="46.048"
       y1="128.01709"
       y2="16.6203">
      <stop
         offset="0"
         stop-color="#f2fdeb"
         id="stop20-9" />
      <stop
         offset="1"
         stop-color="#c8ffa5"
         id="stop22-1" />
    </linearGradient>
    <linearGradient
       gradientTransform="matrix(0.26458334,0,0,0.26458334,0,-6.3500001)"
       id="f-7"
       gradientUnits="userSpaceOnUse"
       x1="67.266975"
       x2="67.266975"
       y1="144.02724"
       y2="-112.02084">
      <stop
         offset="0"
         stop-color="#5ca524"
         id="stop25" />
      <stop
         offset="1"
         stop-color="#58a11e"
         stop-opacity=".986274"
         id="stop27" />
    </linearGradient>
    <linearGradient
       gradientTransform="matrix(0.26458334,0,0,0.26458334,-1.1666677e-8,-6.3500002)"
       id="f-7-6"
       gradientUnits="userSpaceOnUse"
       x1="67.266975"
       x2="67.266975"
       y1="144.02724"
       y2="-112.02084">
      <stop
         offset="0"
         stop-color="#5ca524"
         id="stop25-7" />
      <stop
         offset="1"
         stop-color="#58a11e"
         stop-opacity=".986274"
         id="stop27-5" />
    </linearGradient>
    <linearGradient
       id="e-2-3"
       gradientTransform="matrix(2.5034278,0,0,0.82828144,-138.91626,-22.853911)"
       gradientUnits="userSpaceOnUse"
       x1="46.048"
       x2="46.048"
       y1="128.01709"
       y2="16.6203">
      <stop
         offset="0"
         stop-color="#f2fdeb"
         id="stop20-9-5" />
      <stop
         offset="1"
         stop-color="#c8ffa5"
         id="stop22-1-6" />
    </linearGradient>
  </defs>
  <sodipodi:namedview
     pagecolor="#ffffff"
     bordercolor="#666666"
     borderopacity="1"
     objecttolerance="10"
     gridtolerance="10"
     guidetolerance="10"
     inkscape:pageopacity="0"
     inkscape:pageshadow="2"
     inkscape:window-width="1366"
     inkscape:window-height="714"
     id="namedview80"
     showgrid="true"
     inkscape:zoom="10.429825"
     inkscape:cx="19.771233"
     inkscape:cy="5.8110916"
     inkscape:window-x="0"
     inkscape:window-y="28"
     inkscape:window-maximized="1"
     inkscape:current-layer="g1090">
    <inkscape:grid
       type="xygrid"
       id="grid891"
       spacingx="0.13229167"
       spacingy="0.13229167"
       empspacing="2" />
  </sodipodi:namedview>
  <linearGradient
     id="a"
     gradientTransform="matrix(-0.51583695,0,0,-1.0923589,20.376509,586.20949)"
     gradientUnits="userSpaceOnUse"
     x1="-5.5802851"
     x2="41.94849"
     y1="297.74185"
     y2="264.27243">
    <stop
       offset="0"
       stop-color="#cccdcf"
       id="stop2" />
    <stop
       offset=".11366145"
       stop-color="#e0e0e1"
       id="stop4" />
    <stop
       offset=".20296694"
       stop-color="#f2f2f2"
       id="stop6" />
    <stop
       offset=".21468808"
       stop-color="#fafafa"
       id="stop8" />
    <stop
       offset=".21468808"
       stop-color="#fff"
       id="stop10" />
    <stop
       offset=".63157898"
       stop-color="#fafafa"
       id="stop12" />
    <stop
       offset=".8449"
       stop-color="#ebecec"
       id="stop14" />
    <stop
       offset="1"
       stop-color="#e1e2e3"
       id="stop16" />
  </linearGradient>
  <filter
     id="b"
     height="1.0264"
     width="1.022"
     x="-0.011"
     y="-0.0132"
     style="color-interpolation-filters:sRGB">
    <feGaussianBlur
       stdDeviation=".1200918"
       id="feGaussianBlur19" />
  </filter>
  <filter
     id="c"
     height="1.132"
     width="1.11"
     x="-0.055"
     y="-0.066"
     style="color-interpolation-filters:sRGB">
    <feGaussianBlur
       stdDeviation=".600459"
       id="feGaussianBlur22" />
  </filter>
  <filter
     id="d"
     height="1.0528001"
     width="1.044"
     x="-0.022"
     y="-0.0264"
     style="color-interpolation-filters:sRGB">
    <feGaussianBlur
       stdDeviation=".2401836"
       id="feGaussianBlur25" />
  </filter>
  <g
     id="g876"
     transform="scale(0.125)">
    <g
       id="g1090">
      <path
         d="M 2.4287318,267.39798 H 31.437937 v 29.57064 H 2.4287318 Z"
         transform="matrix(-0.72965325,0,0,-0.86935025,35.638797,266.32916)"
         id="path1008"
         inkscape:connector-curvature="0"
         style="fill:#a4a4a4;filter:url(#c)" />
      <path
         d="M 32.808332,32.80833 H 13.758338 V 9.525 h 19.049994 z"
         id="path1010"
         inkscape:connector-curvature="0"
         style="opacity:0.98999999;fill:#f8f8f8;stroke-width:0.71070546" />
      <path
         d="M 30.380392,31.75 H 16.186277 V 11.64166 h 14.194115 z"
         id="path1012"
         style="opacity:0.98999999;fill:url(#linearGradient1024);stroke-width:0.72559959"
         inkscape:connector-curvature="0" />
      <g
         style="fill:#cacaca"
         transform="translate(11.641666,-255.72499)"
         id="g1022">
        <path
           id="path1014"
           transform="matrix(0.26458334,0,0,0.26458334,-11.641666,255.72499)"
           d="M 84,36 V 80 H 52 v 4 h 32 v 20 H 52.857422 v 4 H 84 v 16 h 4 v -16 h 36 v -4 H 88 V 84 h 36 V 80 H 88 V 36 Z"
           style="opacity:0.77999998;fill:url(#linearGradient1135);fill-opacity:1;stroke-width:3.39830065"
           inkscape:connector-curvature="0" />
        <path
           d="m 21.166666,270.54165 v 1.05833 H 2.1166656 v -1.05833 z"
           id="path1016"
           inkscape:connector-curvature="0"
           style="stroke-width:0.86602539" />
      </g>
      <path
         id="path1057"
         d="M 13.758333,9.4173737 H 32.808332 V 15.875001 H 13.758333 Z"
         style="fill:url(#linearGradient1059);stroke-width:0.25745127"
         inkscape:connector-curvature="0" />
      <path
         style="fill:url(#f-7-6);stroke-width:0.26458335"
         d="M 12.700001,8.4666673 V 9.5250006 L 12.7,31.750001 v 1.058333 1.058333 h 2.116667 17.727084 1.322916 v -2.116666 l 2e-6,-21.166668 V 8.4666668 h -2.116668 l -16.933333,5e-7 z m 2.116667,2.1166667 16.933333,-1e-6 -1e-6,21.166668 H 14.816667 Z"
         id="path44"
         inkscape:connector-curvature="0"
         sodipodi:nodetypes="ccccccccccccccccccc" />
      <path
         d="m 14.816668,10.583334 16.933333,-1e-6 -1e-6,21.166668 H 14.816667 Z"
         id="path42-3"
         style="opacity:0.5;fill:url(#e-2-3);stroke-width:2.11666679"
         inkscape:connector-curvature="0"
         sodipodi:nodetypes="ccccc" />
    </g>
    <g
       id="g1103">
      <path
         style="fill:#313131;filter:url(#d)"
         inkscape:connector-curvature="0"
         id="path28"
         transform="matrix(-0.67806705,0,0,-0.81904917,23.399797,245.19869)"
         d="M 1.7325692,267.06621 H 32.134098 v 30.2342 H 1.7325692 Z" />
      <path
         style="fill:#949494;filter:url(#b)"
         inkscape:connector-curvature="0"
         id="path30"
         transform="matrix(-0.70212045,0,0,-0.84543034,23.530912,252.39647)"
         d="M 1.8599554,267.24631 H 32.006711 v 29.874 H 1.8599554 Z" />
      <path
         style="fill:#a4a4a4;filter:url(#c)"
         inkscape:connector-curvature="0"
         id="path32"
         transform="matrix(-0.72965325,0,0,-0.86935025,23.997131,258.92083)"
         d="M 2.4287318,267.39798 H 31.437937 v 29.57064 H 2.4287318 Z" />
      <path
         style="opacity:0.98999999;fill:#f8f8f8;stroke-width:0.71070546"
         inkscape:connector-curvature="0"
         id="path34"
         d="M 21.166666,25.4 H 2.116672 V 2.11667 h 19.049994 z" />
      <path
         inkscape:connector-curvature="0"
         style="opacity:0.98999999;fill:url(#linearGradient1061);stroke-width:0.72559959"
         id="path36"
         d="M 18.738726,24.34167 H 4.5446118 V 4.23333 H 18.738726 Z" />
      <g
         style="fill:#cacaca"
         id="g62"
         transform="translate(0,-263.13332)">
        <path
           id="path42"
           transform="matrix(0.26458334,0,0,0.26458334,0,263.13332)"
           d="M 40,8 V 28 H 8 v 4 H 40 V 52 H 8 v 4 H 40 V 76 H 4 v 4 h 36 v 16 h 4 V 80 H 80 V 76 H 44 V 56 H 80 V 52 H 44 V 32 H 80 V 28 H 44 V 8 Z"
           style="fill:url(#linearGradient1126);fill-opacity:1;stroke-width:3.39830065"
           inkscape:connector-curvature="0" />
      </g>
      <path
         inkscape:connector-curvature="0"
         style="fill:url(#linearGradient1105);stroke-width:0.27137744"
         d="M 1.0583333,1.0583347 H 22.224999 V 7.5159619 H 1.0583333 Z"
         id="path42-4" />
    </g>
  </g>
</svg>
